symbols/web/memory/materialsymbolsoutlined/memory_wght700gradN25_24px.svg

<svg xmlns="http://www.w3.org/2000/svg" height="24" width="24"><path d="M9.15 14.85v-5.7h5.7v5.7Zm1.875-1.875h1.95v-1.95h-1.95Zm-2.5 8.975v-2.3h-1.15q-1.275 0-2.15-.875t-.875-2.15v-1.15h-2.3v-2.25h2.3v-2.45h-2.3v-2.25h2.3v-1.15q0-1.275.875-2.15t2.15-.875h1.15v-2.3h2.25v2.3h2.45v-2.3h2.25v2.3h1.15q1.275 0 2.15.875t.875 2.15v1.15h2.3v2.25h-2.3v2.45h2.3v2.25h-2.3v1.15q0 1.275-.875 2.15t-2.15.875h-1.15v2.3h-2.25v-2.3h-2.45v2.3Zm8.1-5.325v-9.25h-9.25v9.25ZM12 12Z"/></svg>

<svg xmlns="http://www.w3.org/2000/svg" height="24" width="24"><path d="M9.15 14.85V9.15H14.85V14.85ZM11.025 12.975H12.975V11.025H11.025ZM8.525 21.95V19.65H7.375Q6.1 19.65 5.225 18.775Q4.35 17.9 4.35 16.625V15.475H2.05V13.225H4.35V10.775H2.05V8.525H4.35V7.375Q4.35 6.1 5.225 5.225Q6.1 4.35 7.375 4.35H8.525V2.05H10.775V4.35H13.225V2.05H15.475V4.35H16.625Q17.9 4.35 18.775 5.225Q19.65 6.1 19.65 7.375V8.525H21.95V10.775H19.65V13.225H21.95V15.475H19.65V16.625Q19.65 17.9 18.775 18.775Q17.9 19.65 16.625 19.65H15.475V21.95H13.225V19.65H10.775V21.95ZM16.625 16.625Q16.625 16.625 16.625 16.625Q16.625 16.625 16.625 16.625V7.375Q16.625 7.375 16.625 7.375Q16.625 7.375 16.625 7.375H7.375Q7.375 7.375 7.375 7.375Q7.375 7.375 7.375 7.375V16.625Q7.375 16.625 7.375 16.625Q7.375 16.625 7.375 16.625ZM12 12Z"/></svg>
